img/svg/bubble.svg

<svg width="24" height="24" xmlns="http://www.w3.org/2000/svg"><path d="M12 .876C5.383.876 0 5.31 0 10.759c0 2.573 1.177 4.985 3.325 6.831l-2.41 4.812a.499.499 0 0 0 .658.676l6.437-2.996a14.31 14.31 0 0 0 3.99.561c6.617 0 12-4.434 12-9.884C24 5.31 18.617.876 12 .876zm0 18.767a13.27 13.27 0 0 1-3.883-.572.5.5 0 0 0-.357.025l-5.308 2.471 1.946-3.884a.5.5 0 0 0-.135-.614C2.159 15.386 1 13.145 1 10.759c0-4.898 4.935-8.883 11-8.883s11 3.985 11 8.883-4.935 8.884-11 8.884z" fill-rule="nonzero" fill="#3E3832"/></svg>

<?xml version="1.0" encoding="UTF-8" standalone="no"?>
<svg width="24px" height="24px" viewBox="0 0 24 24" version="1.1" xmlns="http://www.w3.org/2000/svg" xmlns:xlink="http://www.w3.org/1999/xlink">
    <!-- Generator: Sketch 46.2 (44496) - http://www.bohemiancoding.com/sketch -->
    <title>icon/line/ bubble chat 2</title>
    <desc>Created with Sketch.</desc>
    <defs></defs>
    <g id="Tid-på-infomeldinger-som-går-frem-og-tilbake" stroke="none" stroke-width="1" fill="none" fill-rule="evenodd">
        <g id="AT_Motatt-for-godkjenning" transform="translate(-241.000000, -874.000000)" fill="#3E3832">
            <g id="icon/line/-bubble-chat-2" transform="translate(241.000000, 874.000000)">
                <g id="bubble-chat-2">
                    <path d="M12,0.876 C5.383,0.876 0,5.31 0,10.759 C0,13.332 1.177,15.744 3.325,17.59 L0.915,22.402 C0.82,22.591 0.855,22.822 1.004,22.974 C1.1,23.073 1.23,23.125 1.362,23.125 C1.433,23.125 1.506,23.109 1.573,23.078 L8.01,20.082 C9.292,20.454 10.634,20.643 12,20.643 C18.617,20.643 24,16.209 24,10.759 C24,5.31 18.617,0.876 12,0.876 Z M12,19.643 C10.667,19.643 9.36,19.451 8.117,19.071 C7.999,19.035 7.871,19.044 7.76,19.096 L2.452,21.567 L4.398,17.683 C4.503,17.472 4.447,17.216 4.263,17.069 C2.159,15.386 1,13.145 1,10.759 C1,5.861 5.935,1.876 12,1.876 C18.065,1.876 23,5.861 23,10.759 C23,15.657 18.065,19.643 12,19.643 Z" id="Shape" fill-rule="nonzero"></path>
                </g>
            </g>
        </g>
    </g>
</svg>
